X: 19763
T: Jenny's Chickens
R: reel
M: 4/4
K: Bminor
f2>g2 fece fefa eece|f2>g2 fece fefa eece|
fefa eece fefa eece|f2>g2 fece fgaf eece||
fBBA B2ce fBBA fAce|fBBA B2ce fgaf eece|
fBBA B2ce fBBA fAce|fBBA B2ce fgaf eece|
fBBA B2ce fBBA fAce|fBBA B2ce fgaf eBcA||
B2bBaA gG|fgaf eBcA|B2bBaA gG|fgaf eBcA|
B2bBaA gG|fgaf eBcA|B2bBaA gG|fgaf eAce:|

